X:1
T:Title
%%score { 1 | 2 }
L:1/8
Q:1/4=108
M:6/8
K:Ab
V:1 treble nm="Grand Piano"
V:2 bass 
V:1
 [CE]2 [CF] [CE]2 [CF] | [CE]2 [Ec] [CE]3 | [DE]2 [DF] [DE]2 [DF] | [DE]2 [Dd] [DE]3 | E2 F G2 A | %5
w: Chas.~H.~Gabriel * * *|||||
 B3 =A3 | B3 _c3 | c6 | [CE]2 [CF] [CE]2 [CF] | [CE]2 [Ec] [CE]3 | [DE]2 [DF] [DE]2 [DF] | %11
w: ||||||
 [DE]2 [Dd] [DE]3 | E2 F G2 A | B3 d3 | c3 B3 | [CA]6 | c2 c c2 c | c2 [=Ec] c3 | B2 B B2 B | %19
w: ||||||||
 B2 [AB] [GB]3 | [AB]2 [AB] [A=d]2 [=DAc] | [EGB]2 [EAc] [EB]2 [CEA] | [B,EG]3 [A,B,F]3 | %23
w: ||||
 [G,B,E]6 | [CE]2 [CF] [CE]2 [CF] | [CE]2 [Ec] [CE]3 | [DE]2 [DF] [DE]2 [DF] | [DE]2 [Dd] [DE]3 | %28
w: |||||
 E2 F G2 A | B2 =A B2 d | c3 B3 | [CA]6 |] %32
w: ||||
V:2
 [A,,A,]2 [A,,A,] [A,,A,]2 [A,,A,] | [A,,A,]2 [A,,A,] [A,,A,]3 | %2
 [B,,G,]2 [B,,G,] [B,,G,]2 [B,,G,] | [B,,G,]2 [B,,G,] [B,,G,]3 | [E,G,]2 [E,A,E] [E,B,E]2 [E,CE] | %5
 [E,DE]3 [E,CE]3 | [E,DE]3 [E,G,E]3 | [A,E]6 | [A,,A,]2 [A,,A,] [A,,A,]2 [A,,A,] | %9
 [A,,A,]2 [A,,A,] [A,,A,]3 | [B,,G,]2 [B,,G,] [B,,G,]2 [B,,G,] | [B,,G,]2 [B,,G,] [B,,G,]3 | %12
 [E,G,]2 [E,A,E] [E,B,E]2 [E,CE] | [E,DE]3 [E,B,E]3 | [E,A,E]3 [E,G,D]3 | [A,,A,]6 | %16
 [A,E]2 [A,E] [G,B,=E]2 [G,B,E] | [F,A,F]2 [C,G,][K:treble] [F,A,F]3 | %18
 [B,G]2 [B,EG] [A,=DF]2 [A,DF] | [G,E]2 [F,B,] [E,B,]3 | [F,=D]2 [F,D] [B,,B,]2 B,, | %21
 E,2 E, G,,2 A,, | B,,2 _C, =C,2 =D, | E,6 | [A,,A,]2 [A,,A,] [A,,A,]2 [A,,A,] | %25
 [A,,A,]2 [A,,A,] [A,,A,]3 | [B,,G,]2 [B,,G,] [B,,G,]2 [B,,G,] | [B,,G,]2 [B,,G,] [B,,G,]3 | %28
 [E,G,]2 [E,A,E] [E,B,E]2 [E,CE] | [E,DE]2 [E,_G,E] [E,=G,E]2 [E,B,E] | [E,A,E]3 [E,G,D]3 | %31
 [A,,A,]6 |] %32

